X:069
T: Why Shou'd We Part So Soon
N: O'Farrell's Pocket Companion v.1 (Sky ed. p.48)
N: "Irish"
N: Relative of "Ar Eirinn Ni Niosfainn Ce hI"
M: 3/4
L: 1/4
R: waltz
Q: 80 %"slow"
K: A
c/B/|AFE|EFA|A2B|cAF|ABc|d2F/E/|
D>ED|dcd|e d/c/B/A/|B>AF|AFE|EFA|A2 :|
d|c>de|ece|A3|A>Bc|def|fdf|B3|B2d|
c>de|afa|e d/c/B/A/|BAF|AFE|EFA|A2 :|
